X:337
M:C|
L:1/8
K:F
f|affa geeg|fdcA G2 Gg|affa geeg|cAfA F2 Ff|affa geeg|fdcA G2 Gg|
afaf gege|fdcA F2F||

of the Athole Collection, 1884, by James Stewart-Robertson.

